icons/svg/seamark_big/landmark_church.svg

<?xml version="1.0" encoding="UTF-8" standalone="no"?>
<svg
   xmlns:dc="http://purl.org/dc/elements/1.1/"
   xmlns:cc="http://creativecommons.org/ns#"
   xmlns:rdf="http://www.w3.org/1999/02/22-rdf-syntax-ns#"
   xmlns:svg="http://www.w3.org/2000/svg"
   xmlns="http://www.w3.org/2000/svg"
   xmlns:sodipodi="http://sodipodi.sourceforge.net/DTD/sodipodi-0.dtd"
   xmlns:inkscape="http://www.inkscape.org/namespaces/inkscape"
   width="1060"
   height="1060"
   id="svg2"
   version="1.1"
   inkscape:version="0.48.4 r9939"
   sodipodi:docname="landmark_spire.svg">
  <defs
     id="defs13">
    <inkscape:path-effect
       effect="gears"
       id="path-effect3774"
       is_visible="true"
       teeth="6"
       phi="-1.2" />
    <inkscape:path-effect
       effect="bend_path"
       id="path-effect3772"
       is_visible="false"
       bendpath="m 95.790098,316.51174 c 144.429032,-206.42506 223.313032,-11.7428 339.548092,0"
       prop_scale="1.19"
       scale_y_rel="false"
       vertical="false"
       bendpath-nodetypes="cc" />
  </defs>
  <sodipodi:namedview
     pagecolor="#ffffff"
     bordercolor="#666666"
     borderopacity="1"
     objecttolerance="10"
     gridtolerance="10"
     guidetolerance="10"
     inkscape:pageopacity="0"
     inkscape:pageshadow="2"
     inkscape:window-width="1920"
     inkscape:window-height="1004"
     id="namedview11"
     showgrid="false"
     inkscape:zoom="0.57543862"
     inkscape:cx="467.16416"
     inkscape:cy="545.99785"
     inkscape:window-x="1680"
     inkscape:window-y="0"
     inkscape:window-maximized="1"
     inkscape:current-layer="svg2"
     inkscape:snap-object-midpoints="true"
     inkscape:snap-center="true" />
  <metadata
     id="metadata2975">image/svg+xmlen<rdf:RDF>
  <cc:Work
     rdf:about="">
    <dc:format>image/svg+xml</dc:format>
    <dc:type
       rdf:resource="http://purl.org/dc/dcmitype/StillImage" />
    <dc:title></dc:title>
  </cc:Work>
</rdf:RDF>
</metadata>
  <path
     style="font-size:medium;font-style:normal;font-variant:normal;font-weight:normal;font-stretch:normal;text-indent:0;text-align:start;text-decoration:none;line-height:normal;letter-spacing:normal;word-spacing:normal;text-transform:none;direction:ltr;block-progression:tb;writing-mode:lr-tb;text-anchor:start;baseline-shift:baseline;opacity:0.372;color:#000000;fill:#e4e4e4;fill-opacity:1;fill-rule:nonzero;stroke:#a35151;stroke-width:0;stroke-linecap:round;stroke-linejoin:miter;stroke-miterlimit:4;stroke-opacity:1;stroke-dasharray:none;stroke-dashoffset:0;marker:none;visibility:visible;display:inline;overflow:visible;enable-background:accumulate;font-family:Sans;-inkscape-font-specification:Sans"
     d="m 441.47318,257.30942 c -5.39608,0 -7.48503,-0.47993 -16.84375,3.25 -0.0312,0.0104 -0.0625,0.0208 -0.0937,0.0312 -11.63162,4.66153 -20.0817,15.37095 -22.5625,19.78125 -11.39725,20.26178 -7.57334,26.75861 -2.34375,39.375 2.08586,5.03213 7.74498,13.16672 12.75,17.34375 4.69974,3.92225 5.60317,4.11995 3.875,2.90625 l 34.46875,25.875 0,88.84375 -81.71875,0 -30.5,-40.53125 -0.90625,0.6875 c -4.39988,-4.80456 -11.43506,-12.33478 -16.375,-14.59375 -0.0832,-0.0419 -0.16654,-0.0836 -0.25,-0.125 -13.89957,-6.25481 -21.36835,-9.43165 -41.25,2.1875 -0.0313,0.0208 -0.0625,0.0416 -0.0937,0.0625 -5.94608,3.49429 -13.85662,13.58771 -18.09375,21.4375 l -0.53135,-0.2187 c 1.5146,-3.55006 -3.6875,-2.51806 -3.6875,17.84375 l 0,177.0625 c 0,5.80326 -0.56346,7.23797 3.15625,16.6875 0.0104,0.0208 0.0208,0.0417 0.0312,0.0625 5.32278,13.46349 14.78246,19.71537 18.78125,22.09375 0.006,0.003 0.0254,-0.003 0.0312,0 0.0847,0.0503 0.23294,0.17196 0.3125,0.21875 l 0.0312,-0.0312 c 12.9799,7.66775 20.26461,6.41772 24.78125,6.21875 4.56493,-0.2011 7.00951,-0.81335 9.40625,-1.4375 7.68939,-2.00244 16.93401,-8.78842 22.125,-13.9375 l 0.25,0.21875 0.21875,-0.25 -0.25,-0.21875 c 1.09211,-1.10171 2.25705,-2.23475 2.875,-3.09375 -0.77902,1.01361 -1.19202,1.67109 -2.625,3.3125 l 29.8125,-33.625 84.46875,0 0,76.25 -36.53125,30.5 0.6875,0.90625 c -4.80456,4.39988 -12.33478,11.43506 -14.59375,16.375 -0.0419,0.0832 -0.0836,0.16654 -0.125,0.25 -6.25481,13.89957 -9.43165,21.36835 2.1875,41.25 0.0311,0.0521 0.0624,0.10423 0.0937,0.15625 3.49407,5.92641 13.50267,13.80322 21.3125,18.03125 l -0.21875,0.5 c -3.39719,-1.45876 -2.35717,3.71875 17.9375,3.71875 l 177.0625,0 c 5.87588,0 7.25901,0.52505 16.59375,-3.125 13.63707,-5.33854 19.94727,-14.93964 22.3125,-18.9375 l 0.0312,0 c 0.0362,-0.0607 0.058,-0.0958 0.0937,-0.15625 0.0275,-0.0465 0.0352,-0.0786 0.0625,-0.125 7.62799,-12.9521 6.35583,-20.2507 6.15625,-24.78125 -0.20123,-4.56784 -0.80026,-7.03451 -1.4375,-9.46875 -2.51195,-9.59565 -12.52061,-21.74799 -17.3125,-25.1875 1.05105,0.80536 1.84831,1.32716 3.59375,2.875 l -33.8747,-30.0313 0,-79 81.4375,0 26.34375,32.40625 0.96875,-0.78125 c 4.61489,4.99266 10.68386,11.23157 15.03125,13.25 0.0832,0.0315 0.16657,0.0627 0.25,0.0937 14.16265,6.47025 21.87847,9.11511 41.0625,-1.8125 0.0521,-0.0311 0.10423,-0.0624 0.15625,-0.0937 5.96304,-3.42638 14.18472,-13.77312 18.53125,-21.875 l 0.5625,0.21875 c -1.61914,3.85194 3.59375,2.95378 3.59375,-17.625 l 0,-177.0625 c 0,-5.39608 0.49456,-7.48852 -3.25,-16.875 -0.0104,-0.0208 -0.0208,-0.0417 -0.0312,-0.0625 -4.64868,-11.59957 -15.15393,-19.8892 -19.6875,-22.46875 l 0.0312,-0.0312 c -0.0539,-0.0305 -0.10251,-0.0322 -0.15625,-0.0625 -20.35868,-11.48433 -26.70988,-7.58059 -39.34375,-2.34375 -5.03213,2.08586 -13.16672,7.74498 -17.34375,12.75 -3.92225,4.69974 -4.11995,5.60317 -2.90625,3.875 l -25.875,38.46875 -79.375,0 0,-90.90625 32.40625,-26.34375 -0.78125,-0.9688 c 4.99266,-4.61489 11.23157,-10.68386 13.25,-15.03125 0.0315,-0.0832 0.0627,-0.16657 0.0937,-0.25 6.49418,-14.21503 9.25155,-21.77786 -1.875,-41.1875 -0.0104,-0.0104 -0.0208,-0.0208 -0.0312,-0.0312 -3.43643,-5.98053 -13.82577,-14.22693 -21.9375,-18.5625 l 0.21875,-0.5625 c 3.95982,1.65689 3.08756,-3.5625 -17.5625,-3.5625 l -177,0 z m 184.71875,0.4375 c -0.67415,-0.26736 1.3176,0.35885 3.4375,0.96875 1.82158,0.52408 3.49904,0.92908 6.4375,2.15625 l -0.21875,0.5625 c -2.30565,-1.23043 -4.51978,-2.29611 -6.21875,-2.71875 -1.9198,-0.47757 -3.01969,-0.80305 -3.4375,-0.96875 z m -365.21875,165.9375 0.53125,0.21875 c -1.25008,2.32445 -2.28974,4.50878 -2.71875,6.1875 -1.87958,7.35488 -1.33939,1.89798 2.1875,-6.40625 z m 273.78125,104.625 c 1.91138,2.35425 4.06133,4.51469 6.40625,6.4375 -2.35425,1.91138 -4.51469,4.06133 -6.4375,6.40625 -1.91138,-2.35425 -4.06133,-4.51469 -6.40625,-6.4375 2.35425,-1.91138 4.51469,-4.06133 6.4375,-6.40625 z m 267.5,97.875 c 0.26736,-0.67415 -0.35885,1.3176 -0.96875,3.4375 -0.52408,1.82158 -0.92908,3.49904 -2.15625,6.4375 l -0.5625,-0.21875 c 1.23043,-2.30565 2.29611,-4.51978 2.71875,-6.21875 0.47757,-1.9198 0.80305,-3.01969 0.96875,-3.4375 z M 423.91068,798.52817 c 2.29792,1.23309 4.49642,2.23002 6.15625,2.65625 7.31791,1.87917 1.88405,1.35145 -6.375,-2.15625 z"
     id="path3852"
     inkscape:connector-curvature="0"
     sodipodi:nodetypes="sccsssccccccccccccssccccccsscccccccccccccccccsscccccsscccccccccccccsscccccssccccccccccccscsssccssccsccccccssccsscscc" />
  <path
     style="color:#000000;fill:#000000;fill-opacity:1;stroke:#000000;stroke-width:21.51408958;stroke-linejoin:bevel;stroke-miterlimit:4;stroke-opacity:1;stroke-dasharray:none;marker:none;visibility:visible;display:inline;overflow:visible;enable-background:accumulate"
     d="m 441.47318,302.40317 c -0.1016,0 -0.2605,0.0449 -0.1875,0.0937 l 54.53125,39.375 0,157.9375 -149.28125,0 -44.03125,-58.53125 c -0.0395,-0.0724 -0.0937,0.0858 -0.0937,0.1875 l 0,177.0625 c 0,0.10169 0.0387,0.2502 0.0937,0.1875 l 43.5,-49.0625 149.8125,0 0,143.8125 -54.53125,44.0313 c -0.0723,0.0392 0.0858,0.0937 0.1875,0.0937 l 177.0625,0 c 0.1016,0 0.2505,-0.038 0.1875,-0.0937 l -49.0625,-43.5 0,-144.34375 147.9375,0 39.90625,49.0625 c 0.0416,0.0741 0.0937,-0.0858 0.0937,-0.1875 l 0,-177.0625 c 0,-0.10168 -0.0447,-0.2601 -0.0937,-0.1875 l -39.375,58.53125 -148.46875,0 0,-157.40625 49.0625,-39.90625 c 0.0741,-0.0417 -0.0859,-0.0937 -0.1875,-0.0937 l -177.0625,0 z"
     id="rect2987"
     inkscape:connector-curvature="0"
     sodipodi:nodetypes="ccccccsscccccsscccccsscccccscc" />
</svg>

<svg width="1060" height="1060" viewBox="0 0 1060 1060" fill="none" xmlns="http://www.w3.org/2000/svg">
<path opacity="0.372" d="M441.473 257.309C436.077 257.309 433.988 256.829 424.63 260.559C424.598 260.57 424.567 260.58 424.536 260.591C412.904 265.252 404.454 275.962 401.973 280.372C390.576 300.634 394.4 307.13 399.63 319.747C401.715 324.779 407.375 332.914 412.38 337.091C417.079 341.013 417.983 341.211 416.255 339.997L450.723 365.872V454.716H369.005L338.505 414.184L337.598 414.872C333.199 410.067 326.163 402.537 321.223 400.278C321.14 400.236 321.057 400.195 320.973 400.153C307.074 393.898 299.605 390.721 279.723 402.341C279.692 402.361 279.661 402.382 279.63 402.403C273.684 405.897 265.773 415.991 261.536 423.841L261.005 423.622C262.519 420.072 257.317 421.104 257.317 441.466V618.528C257.317 624.331 256.754 625.766 260.473 635.216C260.484 635.236 260.494 635.257 260.505 635.278C265.827 648.742 275.287 654.994 279.286 657.372C279.292 657.375 279.311 657.369 279.317 657.372C279.402 657.422 279.55 657.544 279.629 657.591L279.661 657.559C292.641 665.227 299.925 663.977 304.442 663.778C309.007 663.577 311.451 662.965 313.848 662.341C321.538 660.338 330.782 653.552 335.973 648.403L336.223 648.622L336.442 648.372L336.192 648.153C337.284 647.051 338.449 645.918 339.067 645.059C338.288 646.073 337.875 646.731 336.442 648.372L366.254 614.747H450.723V690.997L414.192 721.497L414.879 722.403C410.075 726.803 402.545 733.838 400.286 738.778C400.244 738.861 400.202 738.945 400.161 739.028C393.906 752.928 390.729 760.397 402.348 780.278C402.379 780.33 402.411 780.382 402.442 780.434C405.936 786.361 415.945 794.238 423.754 798.466L423.536 798.966C420.138 797.507 421.178 802.684 441.473 802.684H618.536C624.411 802.684 625.795 803.209 635.129 799.559C648.766 794.221 655.077 784.62 657.442 780.622H657.473C657.509 780.561 657.531 780.526 657.567 780.466C657.594 780.419 657.602 780.387 657.629 780.341C665.257 767.389 663.985 760.09 663.786 755.559C663.584 750.992 662.985 748.525 662.348 746.091C659.836 736.495 649.827 724.343 645.036 720.903C646.087 721.709 646.884 722.23 648.629 723.778L614.755 693.747V614.747H696.192L722.536 647.153L723.505 646.372C728.119 651.365 734.188 657.604 738.536 659.622C738.619 659.653 738.702 659.685 738.786 659.716C752.949 666.186 760.664 668.831 779.848 657.903C779.9 657.872 779.953 657.841 780.005 657.809C785.968 654.383 794.189 644.036 798.536 635.934L799.098 636.153C797.479 640.005 802.692 639.107 802.692 618.528V441.466C802.692 436.07 803.187 433.977 799.442 424.591C799.432 424.57 799.421 424.549 799.411 424.528C794.762 412.929 784.257 404.639 779.723 402.059L779.755 402.028C779.701 401.998 779.652 401.996 779.598 401.966C759.24 390.481 752.888 394.385 740.255 399.622C735.222 401.708 727.088 407.367 722.911 412.372C718.989 417.072 718.791 417.975 720.005 416.247L694.13 454.716H614.755V363.809L647.161 337.466L646.38 336.497C651.372 331.882 657.611 325.813 659.63 321.466C659.661 321.382 659.692 321.299 659.723 321.216C666.217 307.001 668.975 299.438 657.848 280.028C657.838 280.018 657.828 280.007 657.817 279.997C654.381 274.016 643.991 265.77 635.88 261.434L636.098 260.872C640.058 262.529 639.186 257.309 618.536 257.309H441.536L441.473 257.309ZM626.192 257.747C625.518 257.48 627.51 258.106 629.63 258.716C631.451 259.24 633.129 259.645 636.067 260.872L635.848 261.434C633.543 260.204 631.329 259.138 629.63 258.716C627.71 258.238 626.61 257.913 626.192 257.747ZM260.973 423.684L261.505 423.903C260.255 426.228 259.215 428.412 258.786 430.091C256.906 437.446 257.446 431.989 260.973 423.684ZM534.755 528.309C536.666 530.664 538.816 532.824 541.161 534.747C538.807 536.658 536.646 538.808 534.723 541.153C532.812 538.799 530.662 536.639 528.317 534.716C530.671 532.804 532.832 530.654 534.755 528.309ZM802.255 626.184C802.522 625.51 801.896 627.502 801.286 629.622C800.762 631.444 800.357 633.121 799.13 636.059L798.567 635.841C799.798 633.535 800.863 631.321 801.286 629.622C801.763 627.702 802.089 626.602 802.255 626.184ZM423.911 798.528C426.209 799.761 428.407 800.758 430.067 801.184C437.385 803.064 431.951 802.536 423.692 799.028L423.911 798.528Z" fill="#E4E4E4"/>
<path d="M441.473 302.403C441.371 302.403 441.213 302.448 441.286 302.497L495.817 341.872V499.809H346.536L302.504 441.278C302.465 441.206 302.411 441.364 302.411 441.466V618.528C302.411 618.63 302.449 618.778 302.504 618.716L346.004 569.653H495.817V713.466L441.286 757.497C441.213 757.536 441.371 757.591 441.473 757.591H618.536C618.637 757.591 618.786 757.553 618.723 757.497L569.661 713.997V569.653H717.598L757.504 618.716C757.546 618.79 757.598 618.63 757.598 618.528V441.466C757.598 441.364 757.553 441.206 757.504 441.278L718.129 499.809H569.661V342.403L618.723 302.497C618.797 302.455 618.637 302.403 618.536 302.403H441.473V302.403Z" fill="black" stroke="black" stroke-width="21.5141" stroke-linejoin="bevel"/>
</svg>
